X:1
T:Songs in the Night
T:Songs in the Night
T:John Sylvester Fearis
T:Nellie A. Montgomery, 1900
T:Public Domain Courtesy of the Cyber Hymnal™
T:Public Domain Courtesy of the Cyber Hymnal™
C:John Sylvester Fearis
Z:Public Domain
Z:Courtesy of the Cyber Hymnal™
%%score ( 1 2 ) ( 3 4 )
L:1/8
Q:1/4=85
M:6/8
K:Eb
V:1 treble 
V:2 treble 
V:3 bass 
V:4 bass 
V:1
 E/[EF]/ | [EG]>[EG][EG] [EG][EF]E | [EA]3 [EA]2 [EA] | [EG]>[EG][EG] [EG][EF]E | %4
w: 1.~When the|clouds of af- flic- tion have|ga- thered, And|hid- den each star from my|
w: 2.~Oh, how|dear are those mess- ag- es|to me! No|need then to cry in af-|
w: 3.~And when|morn breaks at last in its|splen- dor, And|sor- row is changed to de-|
 [DF]3- [DF]2 (E/F/) | [EG]>[EG][EG] [EG][EF]E | [EB]3 [EA]2 [FA] | [F=A]>[FA][FA] [FA][FG]F | %8
w: sight, * I *|know if I turn to my|Fa- ther, I|know if I turn to my|
w: fright; * My *|heart grow- eth strong as I|list- en, My|heart grow- eth storng as I|
w: light, * Oh, *|still would I ev- er re-|mem- ber, Oh,|still would I ev- er re-|
 [Fc]3 Bcd | (z e)G c x3 | (z [EB])E [EA] x2 | [EG]B,[EG] [DF]B,[DF] | E3- E2 z || %13
w: Fa- ther, Sweet- est|* songs, sweet-|* est songs,|Sweet- * est songs He will|give *|
w: list- en To the|* songs, to|* the songs,|To * the songs He doth|send *|
w: mem- ber, All the|* songs, all|* the songs,|All * the songs that were|sent *|
"^Refrain" [EA][EA][EA] [EA]2 z | [EG][EG][EG] GFE | [B,D][DF][FB] [F=A][EB][Ec] | %16
w: in the night. *|||
w: in the night. Songs|in the night, songs in the|night, Oh, how pre- cious the|
w: in the night. *|||
 B3- B2 (!fermata!E/F/) | [EG]4 [EF]E | [EB]3 !fermata![EA]2 E/[EF]/ | [EG]B,[EG] [DF]B,[DF] | %20
w: ||||
w: songs * in *|the night! My|heart run- neth o-|ver, For the songs He doth|
w: ||||
 E3- E2 |] %21
w: |
w: send *|
w: |
V:2
 E/ x/ | x5 E | x6 | x5 E | x5 E | x5 E | x6 | x5 F | x3 F2 x | (e3 GG G2) | (B3- EEE) | %11
 x B, x B, x2 | E3- E2 x || x6 | x3 E2 x | x6 | (DDEFD)E | x5 E | x5 E/ x/ | x B, x B, x2 | %20
 E3- E2 |] %21
V:3
 [E,G,]/[E,A,]/ | [E,B,]>[E,B,][E,B,] [E,B,][E,A,][E,G,] | [E,C]3 [E,C]2 [E,C] | %3
w: ~ ~|~ ~ ~ ~ ~ ~|~ ~ ~|
 [E,B,]>[E,B,][E,B,] [C,=A,][C,A,][F,A,] | [B,,B,]3- [B,,B,]2 (G,/A,/) | %5
w: ~ ~ ~ ~ ~ ~|~ * ~ *|
 [E,B,]>[E,B,][E,B,] [E,B,][E,A,][E,G,] | [E,_D]3 [A,C]2 [A,C] | %7
w: ~ ~ ~ ~ ~ ~|~ ~ ~|
 [F,C]>[F,C][F,C] [F,C][F,B,][F,=A,] | [F,E]3 [B,D]2 z | z [E,B,][E,B,] [E,B,]2 z x | %10
w: ~ ~ ~ ~ ~ ~|~ ~|in the night,|
 z [E,G,][E,G,] [E,G,][G,,B,][A,,C] | [B,,B,][B,,G,][B,,B,] [B,,A,][B,,A,][B,,A,] | %12
w: in the night * *||
 [E,G,]3- [E,G,]2 z || C3- CDC | B,3- B,A,G, | F,[F,B,][F,D] [F,E][F,G,][F,=A,] | %16
w: ||||
 (B,F,G, [B,,A,]2) (G,/A,/) | ([E,B,][E,B,][E,B,] [E,B,])[E,A,][E,G,] | %18
w: ||
 [E,_D]3 !fermata![A,C]2 [A,,C]/[A,,C]/ | [B,,B,][B,,G,][B,,B,] [B,,A,][B,,A,][B,,A,] | %20
w: ||
 [E,G,]3- [E,G,]2 |] %21
w: |
V:4
 x | x6 | x6 | x6 | x5 E, | x6 | x6 | x6 | x6 | x7 | x6 | x6 | x6 || E,E,E, E,2 x | E,E,E, E,2 x | %15
 F, x5 | B,,3- x E, x | x6 | x6 | x6 | x5 |] %21

